X: 2
T: Sliabh Bloom March, The
Z: ceolachan
S: https://thesession.org/tunes/12829#setting21891
R: barndance
M: 4/4
L: 1/8
K: Gmaj
|: G,2 B,D GB d(3f/g/a/ | bg d(3B/B/B/ cB (3A/B/A/G | (3F/G/F/D FA d2- d(3e/f/g/ | ag (3f/g/f/e dc (3B/c/B/A |
GG, B,D GB dg/a/ | bg d(3B/B/B/ cB (3A/B/A/G | (3F/G/F/D FA dD EF |[1 G2 G/A/G/F/ G4 :|[2 G2 G/A/G/F/ G2 ||
|: g>a |bg a>f (3g/a/g/d B>c | dc (3B/c/B/A G2 ab | c'/b/a b/a/g a(3g/a/g/ fg | a(3g/a/g/ (3f/g/f/e d2 g>a |
(3bag af gd B>c | dc (3B/c/B/A G2 AB | cA FA D2 EF |[1 G2 G/A/G/F/ G2 :|[2 G2 G/A/G/F/ G4 |]
